Adwaita++-Light/panel/16/si-syncthing-5.svg

<svg height="16" width="16" xmlns="http://www.w3.org/2000/svg">
  <path d="m14.062178 11.5a7 7 0 0 0 -2.562178-9.5621778 7 7 0 0 0 -9.5621777 2.5621778 7 7 0 0 0 2.5621777 9.562178 7 7 0 0 0 9.562178-2.562178zm-1.732051-1a5 5 0 0 1 -5.9672551 2.222308 1.5 1.5 0 0 1 -1.7958841.223844 1.5 1.5 0 0 1 -.5847176-1.979426 5 5 0 0 1 -.9484718-3.5290737 1.5 1.5 0 0 1 -.47995-2.0046397 1.5 1.5 0 0 1 1.6688947-.7031109 5 5 0 0 1 6.2772569-1.0600287 5 5 0 0 1 .07345.04466 1.5 1.5 0 0 1 1.72559-.1606856 1.5 1.5 0 0 1 .549038 2.0490381 1.5 1.5 0 0 1 -.290124.3579769 5 5 0 0 1 -.227827 4.5391376zm-.866025-.5a4 4 0 0 0 .174446-3.6498052 1.5 1.5 0 0 1 -.83951-.198271 1.5 1.5 0 0 1 -.05048-.033656l-2.0122174 1.5829155a1.5 1.5 0 0 1 -.1203151 1.2318294 1.5 1.5 0 0 1 -1.5720801.7229226l-.5878908 1.0182567a1.5 1.5 0 0 1 .3491163 1.1375 4 4 0 0 0 4.6589311-1.811692zm-1.33344-4.6669763a1.5 1.5 0 0 1 -.054808-.7488205 4 4 0 0 0 -.075854-.0483048 4 4 0 0 0 -4.9413139.7578253 1.5 1.5 0 0 1 .2671219 1.1623308l1.0182568.5878908a1.5 1.5 0 0 1 1.7229226-.1599707 1.5 1.5 0 0 1 .05048.03366zm-3.9527418 3.8229114a1.5 1.5 0 0 1 -.3338551-1.2459644l-1.0182572-.5878907a1.5 1.5 0 0 1 -.8075395.3479203 4 4 0 0 0 .6977355 2.6039857 1.5 1.5 0 0 1 .8740254-.09979z" fill="#444"/>
</svg>

<svg xmlns="http://www.w3.org/2000/svg" width="16" height="16" version="1.1">
 <defs>
  <style id="current-color-scheme" type="text/css">
   .ColorScheme-Text { color:#444444; } .ColorScheme-Highlight { color:#4285f4; }
  </style>
 </defs>
 <path style="fill:currentColor" class="ColorScheme-Text" d="M 14.062178,11.5 A 7,7 0 0 0 11.5,1.9378222 7,7 0 0 0 1.9378223,4.5 7,7 0 0 0 4.5,14.062178 7,7 0 0 0 14.062178,11.5 Z m -1.732051,-1 A 5,5 0 0 1 6.3628719,12.722308 1.5,1.5 0 0 1 4.5669878,12.946152 1.5,1.5 0 0 1 3.9822702,10.966726 5,5 0 0 1 3.0337984,7.4376523 1.5,1.5 0 0 1 2.5538484,5.4330126 1.5,1.5 0 0 1 4.2227431,4.7299017 5,5 0 0 1 10.5,3.669873 a 5,5 0 0 1 0.07345,0.04466 1.5,1.5 0 0 1 1.72559,-0.1606856 1.5,1.5 0 0 1 0.549038,2.0490381 A 1.5,1.5 0 0 1 12.557954,5.9608624 5,5 0 0 1 12.330127,10.5 Z M 11.464102,10 a 4,4 0 0 0 0.174446,-3.6498052 1.5,1.5 0 0 1 -0.83951,-0.198271 1.5,1.5 0 0 1 -0.05048,-0.033656 L 8.7363406,7.7011833 A 1.5,1.5 0 0 1 8.6160255,8.9330127 1.5,1.5 0 0 1 7.0439454,9.6559353 L 6.4560546,10.674192 a 1.5,1.5 0 0 1 0.3491163,1.1375 A 4,4 0 0 0 11.464102,10 Z M 10.130662,5.3330237 A 1.5,1.5 0 0 1 10.075854,4.5842032 4,4 0 0 0 10,4.5358984 4,4 0 0 0 5.0586861,5.2937237 1.5,1.5 0 0 1 5.325808,6.4560545 l 1.0182568,0.5878908 a 1.5,1.5 0 0 1 1.7229226,-0.1599707 1.5,1.5 0 0 1 0.05048,0.03366 L 10.130662,5.3330237 Z M 6.1779202,9.1559351 A 1.5,1.5 0 0 1 5.8440651,7.9099707 L 4.8258079,7.32208 A 1.5,1.5 0 0 1 4.0182684,7.6700003 4,4 0 0 0 4.7160039,10.273986 1.5,1.5 0 0 1 5.5900293,10.174196 L 6.1779202,9.1559351 Z"/>
</svg>
